images/50638901.svg

<?xml version="1.0" encoding="UTF-8"?>
<svg xmlns="http://www.w3.org/2000/svg" xmlns:xlink="http://www.w3.org/1999/xlink" width="300pt" height="300pt" viewBox="0 0 300 300" version="1.1">
<defs>
<g>
<symbol overflow="visible" id="glyph0-0">
<path style="stroke:none;" d="M 0.546875 1.9375 L 0.546875 -7.75 L 6.046875 -7.75 L 6.046875 1.9375 Z M 1.171875 1.328125 L 5.4375 1.328125 L 5.4375 -7.140625 L 1.171875 -7.140625 Z M 1.171875 1.328125 "/>
</symbol>
<symbol overflow="visible" id="glyph0-1">
<path style="stroke:none;" d="M 5.890625 -7.75 L 5.890625 -6.703125 C 5.472656 -6.898438 5.082031 -7.046875 4.71875 -7.140625 C 4.351562 -7.234375 4 -7.28125 3.65625 -7.28125 C 3.070312 -7.28125 2.617188 -7.164062 2.296875 -6.9375 C 1.972656 -6.707031 1.8125 -6.382812 1.8125 -5.96875 C 1.8125 -5.613281 1.914062 -5.34375 2.125 -5.15625 C 2.34375 -4.976562 2.75 -4.832031 3.34375 -4.71875 L 4 -4.59375 C 4.8125 -4.4375 5.410156 -4.160156 5.796875 -3.765625 C 6.179688 -3.378906 6.375 -2.863281 6.375 -2.21875 C 6.375 -1.4375 6.113281 -0.84375 5.59375 -0.4375 C 5.070312 -0.0390625 4.304688 0.15625 3.296875 0.15625 C 2.921875 0.15625 2.515625 0.109375 2.078125 0.015625 C 1.648438 -0.0664062 1.207031 -0.191406 0.75 -0.359375 L 0.75 -1.46875 C 1.195312 -1.21875 1.628906 -1.03125 2.046875 -0.90625 C 2.472656 -0.78125 2.890625 -0.71875 3.296875 -0.71875 C 3.921875 -0.71875 4.398438 -0.835938 4.734375 -1.078125 C 5.066406 -1.328125 5.234375 -1.675781 5.234375 -2.125 C 5.234375 -2.519531 5.113281 -2.828125 4.875 -3.046875 C 4.632812 -3.273438 4.238281 -3.445312 3.6875 -3.5625 L 3.03125 -3.6875 C 2.21875 -3.84375 1.628906 -4.09375 1.265625 -4.4375 C 0.898438 -4.78125 0.71875 -5.257812 0.71875 -5.875 C 0.71875 -6.582031 0.96875 -7.140625 1.46875 -7.546875 C 1.96875 -7.960938 2.660156 -8.171875 3.546875 -8.171875 C 3.921875 -8.171875 4.300781 -8.132812 4.6875 -8.0625 C 5.082031 -7.988281 5.484375 -7.882812 5.890625 -7.75 Z M 5.890625 -7.75 "/>
</symbol>
<symbol overflow="visible" id="glyph0-2">
<path style="stroke:none;" d="M 1.078125 -8.015625 L 2.546875 -8.015625 L 6.09375 -1.3125 L 6.09375 -8.015625 L 7.15625 -8.015625 L 7.15625 0 L 5.6875 0 L 2.125 -6.703125 L 2.125 0 L 1.078125 0 Z M 1.078125 -8.015625 "/>
</symbol>
<symbol overflow="visible" id="glyph0-3">
<path style="stroke:none;" d="M 1.078125 -8.015625 L 2.171875 -8.015625 L 2.171875 -4.734375 L 6.109375 -4.734375 L 6.109375 -8.015625 L 7.1875 -8.015625 L 7.1875 0 L 6.109375 0 L 6.109375 -3.8125 L 2.171875 -3.8125 L 2.171875 0 L 1.078125 0 Z M 1.078125 -8.015625 "/>
</symbol>
<symbol overflow="visible" id="glyph0-4">
<path style="stroke:none;" d="M 1.078125 -8.015625 L 5.6875 -8.015625 L 5.6875 -7.109375 L 2.171875 -7.109375 L 2.171875 -4.75 L 5.34375 -4.75 L 5.34375 -3.828125 L 2.171875 -3.828125 L 2.171875 0 L 1.078125 0 Z M 1.078125 -8.015625 "/>
</symbol>
</g>
</defs>
<g id="surface21073">
<rect x="0" y="0" width="300" height="300" style="fill:rgb(100%,100%,100%);fill-opacity:1;stroke:none;"/>
<path style="fill:none;stroke-width:1.2;stroke-linecap:butt;stroke-linejoin:miter;stroke:rgb(80%,80%,0%);stroke-opacity:1;stroke-miterlimit:10;" d="M 171.800781 223.378906 L 185.421875 224.691406 "/>
<path style="fill:none;stroke-width:1.2;stroke-linecap:butt;stroke-linejoin:miter;stroke:rgb(0%,0%,0%);stroke-opacity:1;stroke-miterlimit:10;" d="M 185.421875 224.691406 L 199.046875 226.007812 "/>
<path style="fill:none;stroke-width:1.2;stroke-linecap:butt;stroke-linejoin:miter;stroke:rgb(80%,80%,0%);stroke-opacity:1;stroke-miterlimit:10;" d="M 171.800781 223.378906 L 166.125 210.921875 "/>
<path style="fill:none;stroke-width:1.2;stroke-linecap:butt;stroke-linejoin:miter;stroke:rgb(0%,0%,0%);stroke-opacity:1;stroke-miterlimit:10;" d="M 166.125 210.921875 L 160.453125 198.46875 "/>
<path style=" stroke:none;fill-rule:nonzero;fill:rgb(100%,100%,100%);fill-opacity:1;" d="M 168.800781 216.878906 L 175.800781 216.878906 L 175.800781 229.878906 L 168.800781 229.878906 Z M 168.800781 216.878906 "/>
<g style="fill:rgb(80%,80%,0%);fill-opacity:1;">
  <use xlink:href="#glyph0-1" x="168.800781" y="226.780273"/>
</g>
<path style="fill:none;stroke-width:1.2;stroke-linecap:butt;stroke-linejoin:miter;stroke:rgb(0%,0%,0%);stroke-opacity:1;stroke-miterlimit:10;" d="M 160.453125 198.46875 L 147.042969 195.738281 "/>
<path style="fill:none;stroke-width:1.2;stroke-linecap:butt;stroke-linejoin:miter;stroke:rgb(0%,0%,100%);stroke-opacity:1;stroke-miterlimit:10;" d="M 147.042969 195.738281 L 133.628906 193.003906 "/>
<path style="fill:none;stroke-width:1.2;stroke-linecap:butt;stroke-linejoin:miter;stroke:rgb(0%,0%,100%);stroke-opacity:1;stroke-miterlimit:10;" d="M 173.9375 174.644531 L 167.195312 186.558594 "/>
<path style="fill:none;stroke-width:1.2;stroke-linecap:butt;stroke-linejoin:miter;stroke:rgb(0%,0%,0%);stroke-opacity:1;stroke-miterlimit:10;" d="M 167.195312 186.558594 L 160.453125 198.46875 "/>
<path style="fill:none;stroke-width:1.2;stroke-linecap:butt;stroke-linejoin:miter;stroke:rgb(0%,0%,100%);stroke-opacity:1;stroke-miterlimit:10;" d="M 166.984375 173.855469 L 161.589844 183.382812 "/>
<path style="fill:none;stroke-width:1.2;stroke-linecap:butt;stroke-linejoin:miter;stroke:rgb(0%,0%,0%);stroke-opacity:1;stroke-miterlimit:10;" d="M 161.589844 183.382812 L 156.195312 192.914062 "/>
<path style="fill:none;stroke-width:1.2;stroke-linecap:butt;stroke-linejoin:miter;stroke:rgb(0%,0%,100%);stroke-opacity:1;stroke-miterlimit:10;" d="M 133.628906 193.003906 L 132.082031 179.40625 "/>
<path style="fill:none;stroke-width:1.2;stroke-linecap:butt;stroke-linejoin:miter;stroke:rgb(0%,0%,0%);stroke-opacity:1;stroke-miterlimit:10;" d="M 132.082031 179.40625 L 130.539062 165.808594 "/>
<path style=" stroke:none;fill-rule:nonzero;fill:rgb(100%,100%,100%);fill-opacity:1;" d="M 125.628906 186.503906 L 142.628906 186.503906 L 142.628906 199.503906 L 125.628906 199.503906 Z M 125.628906 186.503906 "/>
<g style="fill:rgb(0%,0%,100%);fill-opacity:1;">
  <use xlink:href="#glyph0-2" x="125.628906" y="196.405273"/>
  <use xlink:href="#glyph0-3" x="133.612305" y="196.405273"/>
</g>
<path style="fill:none;stroke-width:1.2;stroke-linecap:butt;stroke-linejoin:miter;stroke:rgb(0%,0%,0%);stroke-opacity:1;stroke-miterlimit:10;" d="M 130.539062 165.808594 L 155.449219 154.460938 "/>
<path style="fill:none;stroke-width:1.2;stroke-linecap:butt;stroke-linejoin:miter;stroke:rgb(0%,0%,0%);stroke-opacity:1;stroke-miterlimit:10;" d="M 135.699219 170.535156 L 155.625 161.457031 "/>
<path style="fill:none;stroke-width:1.2;stroke-linecap:butt;stroke-linejoin:miter;stroke:rgb(0%,0%,0%);stroke-opacity:1;stroke-miterlimit:10;" d="M 130.539062 165.808594 L 106.714844 152.324219 "/>
<path style="fill:none;stroke-width:1.2;stroke-linecap:butt;stroke-linejoin:miter;stroke:rgb(0%,0%,0%);stroke-opacity:1;stroke-miterlimit:10;" d="M 155.449219 154.460938 L 164.691406 164.554688 "/>
<path style="fill:none;stroke-width:1.2;stroke-linecap:butt;stroke-linejoin:miter;stroke:rgb(0%,0%,100%);stroke-opacity:1;stroke-miterlimit:10;" d="M 164.691406 164.554688 L 173.9375 174.644531 "/>
<path style="fill:none;stroke-width:1.2;stroke-linecap:butt;stroke-linejoin:miter;stroke:rgb(0%,0%,0%);stroke-opacity:1;stroke-miterlimit:10;" d="M 155.449219 154.460938 L 160.910156 127.636719 "/>
<path style=" stroke:none;fill-rule:nonzero;fill:rgb(100%,100%,100%);fill-opacity:1;" d="M 169.9375 168.144531 L 177.9375 168.144531 L 177.9375 181.144531 L 169.9375 181.144531 Z M 169.9375 168.144531 "/>
<g style="fill:rgb(0%,0%,100%);fill-opacity:1;">
  <use xlink:href="#glyph0-2" x="169.9375" y="178.045898"/>
</g>
<path style="fill:none;stroke-width:1.2;stroke-linecap:butt;stroke-linejoin:miter;stroke:rgb(0%,0%,0%);stroke-opacity:1;stroke-miterlimit:10;" d="M 160.910156 127.636719 L 186.871094 118.957031 "/>
<path style="fill:none;stroke-width:1.2;stroke-linecap:butt;stroke-linejoin:miter;stroke:rgb(0%,0%,0%);stroke-opacity:1;stroke-miterlimit:10;" d="M 161.464844 120.660156 L 182.230469 113.71875 "/>
<path style="fill:none;stroke-width:1.2;stroke-linecap:butt;stroke-linejoin:miter;stroke:rgb(0%,0%,0%);stroke-opacity:1;stroke-miterlimit:10;" d="M 140.410156 109.496094 L 160.910156 127.636719 "/>
<path style="fill:none;stroke-width:1.2;stroke-linecap:butt;stroke-linejoin:miter;stroke:rgb(0%,0%,0%);stroke-opacity:1;stroke-miterlimit:10;" d="M 186.871094 118.957031 L 192.332031 92.136719 "/>
<path style="fill:none;stroke-width:1.2;stroke-linecap:butt;stroke-linejoin:miter;stroke:rgb(0%,0%,0%);stroke-opacity:1;stroke-miterlimit:10;" d="M 192.332031 92.136719 L 182.082031 83.0625 "/>
<path style="fill:none;stroke-width:1.2;stroke-linecap:butt;stroke-linejoin:miter;stroke:rgb(0%,0%,100%);stroke-opacity:1;stroke-miterlimit:10;" d="M 182.082031 83.0625 L 171.835938 73.992188 "/>
<path style="fill:none;stroke-width:1.2;stroke-linecap:butt;stroke-linejoin:miter;stroke:rgb(0%,0%,0%);stroke-opacity:1;stroke-miterlimit:10;" d="M 186.011719 95.144531 L 177.816406 87.886719 "/>
<path style="fill:none;stroke-width:1.2;stroke-linecap:butt;stroke-linejoin:miter;stroke:rgb(0%,0%,100%);stroke-opacity:1;stroke-miterlimit:10;" d="M 177.816406 87.886719 L 169.617188 80.628906 "/>
<path style="fill:none;stroke-width:1.2;stroke-linecap:butt;stroke-linejoin:miter;stroke:rgb(0%,0%,0%);stroke-opacity:1;stroke-miterlimit:10;" d="M 192.332031 92.136719 L 205.3125 87.792969 "/>
<path style="fill:none;stroke-width:1.2;stroke-linecap:butt;stroke-linejoin:miter;stroke:rgb(0%,0%,100%);stroke-opacity:1;stroke-miterlimit:10;" d="M 205.3125 87.792969 L 218.292969 83.453125 "/>
<path style="fill:none;stroke-width:1.2;stroke-linecap:butt;stroke-linejoin:miter;stroke:rgb(0%,0%,100%);stroke-opacity:1;stroke-miterlimit:10;" d="M 171.835938 73.992188 L 158.855469 78.332031 "/>
<path style="fill:none;stroke-width:1.2;stroke-linecap:butt;stroke-linejoin:miter;stroke:rgb(0%,0%,0%);stroke-opacity:1;stroke-miterlimit:10;" d="M 158.855469 78.332031 L 145.875 82.675781 "/>
<path style=" stroke:none;fill-rule:nonzero;fill:rgb(100%,100%,100%);fill-opacity:1;" d="M 167.835938 67.492188 L 175.835938 67.492188 L 175.835938 80.492188 L 167.835938 80.492188 Z M 167.835938 67.492188 "/>
<g style="fill:rgb(0%,0%,100%);fill-opacity:1;">
  <use xlink:href="#glyph0-2" x="167.835938" y="77.393555"/>
</g>
<path style="fill:none;stroke-width:1.2;stroke-linecap:butt;stroke-linejoin:miter;stroke:rgb(0%,0%,0%);stroke-opacity:1;stroke-miterlimit:10;" d="M 145.875 82.675781 L 140.410156 109.496094 "/>
<path style="fill:none;stroke-width:1.2;stroke-linecap:butt;stroke-linejoin:miter;stroke:rgb(0%,0%,0%);stroke-opacity:1;stroke-miterlimit:10;" d="M 151.640625 86.640625 L 147.269531 108.101562 "/>
<path style="fill:none;stroke-width:1;stroke-linecap:butt;stroke-linejoin:miter;stroke:rgb(0%,0%,0%);stroke-opacity:1;stroke-miterlimit:10;" d="M 238.789062 101.597656 L 238.789062 101.597656 M 236.921875 99.246094 L 236.230469 100.027344 M 235.054688 96.898438 L 233.675781 98.460938 M 233.191406 94.550781 L 231.117188 96.894531 M 231.324219 92.203125 L 228.558594 95.324219 M 229.457031 89.855469 L 226 93.757812 M 227.589844 87.503906 L 223.441406 92.191406 M 225.722656 85.15625 L 220.886719 90.621094 M 223.855469 82.808594 L 218.328125 89.054688 M 221.988281 80.460938 L 215.769531 87.488281 M 221.492188 79.835938 L 215.089844 87.070312 "/>
<path style=" stroke:none;fill-rule:nonzero;fill:rgb(100%,100%,100%);fill-opacity:1;" d="M 210.292969 76.953125 L 227.292969 76.953125 L 227.292969 89.953125 L 210.292969 89.953125 Z M 210.292969 76.953125 "/>
<g style="fill:rgb(0%,0%,100%);fill-opacity:1;">
  <use xlink:href="#glyph0-2" x="210.292969" y="86.854492"/>
  <use xlink:href="#glyph0-3" x="218.276367" y="86.854492"/>
</g>
<path style="fill:none;stroke-width:1.2;stroke-linecap:butt;stroke-linejoin:miter;stroke:rgb(0%,0%,0%);stroke-opacity:1;stroke-miterlimit:10;" d="M 238.789062 101.597656 L 264.75 92.914062 "/>
<path style="fill:none;stroke-width:1.2;stroke-linecap:butt;stroke-linejoin:miter;stroke:rgb(0%,0%,0%);stroke-opacity:1;stroke-miterlimit:10;" d="M 238.789062 101.597656 L 233.328125 128.417969 "/>
<path style="fill:none;stroke-width:1.2;stroke-linecap:butt;stroke-linejoin:miter;stroke:rgb(0%,0%,0%);stroke-opacity:1;stroke-miterlimit:10;" d="M 233.328125 128.417969 L 207.367188 137.097656 "/>
<path style="fill:none;stroke-width:1.2;stroke-linecap:butt;stroke-linejoin:miter;stroke:rgb(0%,0%,0%);stroke-opacity:1;stroke-miterlimit:10;" d="M 232.773438 135.394531 L 212.007812 142.339844 "/>
<path style="fill:none;stroke-width:1.2;stroke-linecap:butt;stroke-linejoin:miter;stroke:rgb(0%,0%,0%);stroke-opacity:1;stroke-miterlimit:10;" d="M 253.824219 146.558594 L 233.328125 128.417969 "/>
<path style="fill:none;stroke-width:1.2;stroke-linecap:butt;stroke-linejoin:miter;stroke:rgb(0%,0%,0%);stroke-opacity:1;stroke-miterlimit:10;" d="M 207.367188 137.097656 L 201.90625 163.921875 "/>
<path style="fill:none;stroke-width:1.2;stroke-linecap:butt;stroke-linejoin:miter;stroke:rgb(0%,0%,0%);stroke-opacity:1;stroke-miterlimit:10;" d="M 201.90625 163.921875 L 222.402344 182.0625 "/>
<path style="fill:none;stroke-width:1.2;stroke-linecap:butt;stroke-linejoin:miter;stroke:rgb(0%,0%,0%);stroke-opacity:1;stroke-miterlimit:10;" d="M 208.222656 160.914062 L 224.621094 175.425781 "/>
<path style="fill:none;stroke-width:1.2;stroke-linecap:butt;stroke-linejoin:miter;stroke:rgb(0%,0%,0%);stroke-opacity:1;stroke-miterlimit:10;" d="M 222.402344 182.0625 L 248.363281 173.382812 "/>
<path style="fill:none;stroke-width:1.2;stroke-linecap:butt;stroke-linejoin:miter;stroke:rgb(0%,0%,0%);stroke-opacity:1;stroke-miterlimit:10;" d="M 248.363281 173.382812 L 253.824219 146.558594 "/>
<path style="fill:none;stroke-width:1.2;stroke-linecap:butt;stroke-linejoin:miter;stroke:rgb(0%,0%,0%);stroke-opacity:1;stroke-miterlimit:10;" d="M 242.597656 169.414062 L 246.96875 147.957031 "/>
<path style="fill:none;stroke-width:1.2;stroke-linecap:butt;stroke-linejoin:miter;stroke:rgb(0%,0%,0%);stroke-opacity:1;stroke-miterlimit:10;" d="M 106.714844 152.324219 L 83.128906 166.210938 "/>
<path style="fill:none;stroke-width:1.2;stroke-linecap:butt;stroke-linejoin:miter;stroke:rgb(0%,0%,0%);stroke-opacity:1;stroke-miterlimit:10;" d="M 101.089844 148.164062 L 82.21875 159.273438 "/>
<path style="fill:none;stroke-width:1.2;stroke-linecap:butt;stroke-linejoin:miter;stroke:rgb(0%,0%,0%);stroke-opacity:1;stroke-miterlimit:10;" d="M 106.480469 124.953125 L 106.714844 152.324219 "/>
<path style="fill:none;stroke-width:1.2;stroke-linecap:butt;stroke-linejoin:miter;stroke:rgb(0%,0%,0%);stroke-opacity:1;stroke-miterlimit:10;" d="M 83.128906 166.210938 L 59.304688 152.730469 "/>
<path style="fill:none;stroke-width:1.2;stroke-linecap:butt;stroke-linejoin:miter;stroke:rgb(0%,0%,0%);stroke-opacity:1;stroke-miterlimit:10;" d="M 59.304688 152.730469 L 59.070312 125.355469 "/>
<path style="fill:none;stroke-width:1.2;stroke-linecap:butt;stroke-linejoin:miter;stroke:rgb(0%,0%,0%);stroke-opacity:1;stroke-miterlimit:10;" d="M 65.722656 149.9375 L 65.535156 128.039062 "/>
<path style="fill:none;stroke-width:1.2;stroke-linecap:butt;stroke-linejoin:miter;stroke:rgb(0%,0%,0%);stroke-opacity:1;stroke-miterlimit:10;" d="M 59.070312 125.355469 L 47.160156 118.617188 "/>
<path style="fill:none;stroke-width:1.2;stroke-linecap:butt;stroke-linejoin:miter;stroke:rgb(20%,80%,80%);stroke-opacity:1;stroke-miterlimit:10;" d="M 47.160156 118.617188 L 35.25 111.875 "/>
<path style="fill:none;stroke-width:1.2;stroke-linecap:butt;stroke-linejoin:miter;stroke:rgb(0%,0%,0%);stroke-opacity:1;stroke-miterlimit:10;" d="M 59.070312 125.355469 L 82.660156 111.46875 "/>
<path style=" stroke:none;fill-rule:nonzero;fill:rgb(100%,100%,100%);fill-opacity:1;" d="M 28.25 105.375 L 35.25 105.375 L 35.25 118.375 L 28.25 118.375 Z M 28.25 105.375 "/>
<g style="fill:rgb(20%,80%,80%);fill-opacity:1;">
  <use xlink:href="#glyph0-4" x="28.25" y="115.276367"/>
</g>
<path style="fill:none;stroke-width:1.2;stroke-linecap:butt;stroke-linejoin:miter;stroke:rgb(0%,0%,0%);stroke-opacity:1;stroke-miterlimit:10;" d="M 82.660156 111.46875 L 106.480469 124.953125 "/>
<path style="fill:none;stroke-width:1.2;stroke-linecap:butt;stroke-linejoin:miter;stroke:rgb(0%,0%,0%);stroke-opacity:1;stroke-miterlimit:10;" d="M 81.871094 118.421875 L 100.925781 129.210938 "/>
</g>
</svg>

<svg xmlns="http://www.w3.org/2000/svg" xmlns:xlink="http://www.w3.org/1999/xlink" width="300pt" height="300pt" viewBox="0 0 300 300"><defs><symbol overflow="visible"><path d="M.547 1.938V-7.75h5.5v9.688zm.625-.61h4.266v-8.47H1.171zm0 0"/></symbol><symbol overflow="visible" id="a"><path d="M5.89-7.75v1.047c-.417-.195-.808-.344-1.17-.438-.368-.094-.72-.14-1.064-.14-.586 0-1.04.116-1.36.343-.323.23-.483.554-.483.968 0 .357.1.626.312.814.22.18.625.324 1.22.437L4-4.593c.813.157 1.41.434 1.797.828.383.387.578.903.578 1.547 0 .783-.262 1.376-.78 1.783-.525.398-1.29.593-2.298.593-.375 0-.78-.047-1.22-.14C1.648-.066 1.208-.19.75-.36v-1.11c.445.25.88.44 1.297.564.426.125.844.187 1.25.187.625 0 1.1-.116 1.437-.358.332-.25.5-.598.5-1.047 0-.395-.12-.703-.36-.922-.24-.226-.636-.398-1.186-.515l-.657-.126c-.81-.156-1.4-.406-1.764-.75C.898-4.78.72-5.258.72-5.875c0-.707.25-1.266.75-1.672.5-.414 1.19-.625 2.077-.625.375 0 .754.04 1.14.11.395.074.797.18 1.204.312zm0 0"/></symbol><symbol overflow="visible" id="b"><path d="M1.078-8.016h1.47l3.546 6.704v-6.704h1.062V0H5.688L2.124-6.703V0H1.078zm0 0"/></symbol><symbol overflow="visible" id="c"><path d="M1.078-8.016h1.094v3.282H6.11v-3.282h1.077V0H6.11v-3.813H2.17V0H1.078zm0 0"/></symbol><symbol overflow="visible" id="d"><path d="M1.078-8.016h4.61v.907H2.171v2.36h3.172v.922H2.172V0H1.078zm0 0"/></symbol></defs><g><path fill="#fff" d="M0 0h300v300H0z"/><path d="M171.8 223.38l13.622 1.31" stroke-width="1.2" stroke="#cc0" stroke-miterlimit="10" fill="none"/><path d="M185.422 224.69l13.625 1.318" stroke-width="1.2" stroke="#000" stroke-miterlimit="10" fill="none"/><path d="M171.8 223.38l-5.675-12.458" stroke-width="1.2" stroke="#cc0" stroke-miterlimit="10" fill="none"/><path d="M166.125 210.922l-5.672-12.453" stroke-width="1.2" stroke="#000" stroke-miterlimit="10" fill="none"/><path d="M168.8 216.88h7v13h-7zm0 0" fill="#fff"/><use xlink:href="#a" x="168.801" y="226.78" fill="#cc0"/><path d="M160.453 198.47l-13.41-2.732" stroke-width="1.2" stroke="#000" stroke-miterlimit="10" fill="none"/><path d="M147.043 195.738l-13.414-2.734M173.938 174.645l-6.743 11.914" stroke-width="1.2" stroke="#00f" stroke-miterlimit="10" fill="none"/><path d="M167.195 186.56l-6.742 11.91" stroke-width="1.2" stroke="#000" stroke-miterlimit="10" fill="none"/><path d="M166.984 173.855l-5.394 9.528" stroke-width="1.2" stroke="#00f" stroke-miterlimit="10" fill="none"/><path d="M161.59 183.383l-5.395 9.53" stroke-width="1.2" stroke="#000" stroke-miterlimit="10" fill="none"/><path d="M133.63 193.004l-1.548-13.598" stroke-width="1.2" stroke="#00f" stroke-miterlimit="10" fill="none"/><path d="M132.082 179.406l-1.543-13.597" stroke-width="1.2" stroke="#000" stroke-miterlimit="10" fill="none"/><path d="M125.63 186.504h17v13h-17zm0 0" fill="#fff"/><g fill="#00f"><use xlink:href="#b" x="125.629" y="196.405"/><use xlink:href="#c" x="133.612" y="196.405"/></g><path d="M130.54 165.81l24.91-11.35M135.7 170.535l19.925-9.078M130.54 165.81l-23.825-13.486M155.45 154.46l9.24 10.095" stroke-width="1.2" stroke="#000" stroke-miterlimit="10" fill="none"/><path d="M164.69 164.555l9.248 10.09" stroke-width="1.2" stroke="#00f" stroke-miterlimit="10" fill="none"/><path d="M155.45 154.46l5.46-26.823" stroke-width="1.2" stroke="#000" stroke-miterlimit="10" fill="none"/><path d="M169.938 168.145h8v13h-8zm0 0" fill="#fff"/><use xlink:href="#b" x="169.938" y="178.046" fill="#00f"/><path d="M160.91 127.637l25.96-8.68M161.465 120.66l20.765-6.94M140.41 109.496l20.5 18.14M186.87 118.957l5.462-26.82M192.332 92.137l-10.25-9.075" stroke-width="1.2" stroke="#000" stroke-miterlimit="10" fill="none"/><path d="M182.082 83.063l-10.246-9.07" stroke-width="1.2" stroke="#00f" stroke-miterlimit="10" fill="none"/><path d="M186.012 95.145l-8.196-7.258" stroke-width="1.2" stroke="#000" stroke-miterlimit="10" fill="none"/><path d="M177.816 87.887l-8.2-7.258" stroke-width="1.2" stroke="#00f" stroke-miterlimit="10" fill="none"/><path d="M192.332 92.137l12.98-4.344" stroke-width="1.2" stroke="#000" stroke-miterlimit="10" fill="none"/><path d="M205.313 87.793l12.98-4.34M171.836 73.992l-12.98 4.34" stroke-width="1.2" stroke="#00f" stroke-miterlimit="10" fill="none"/><path d="M158.855 78.332l-12.98 4.344" stroke-width="1.2" stroke="#000" stroke-miterlimit="10" fill="none"/><path d="M167.836 67.492h8v13h-8zm0 0" fill="#fff"/><use xlink:href="#b" x="167.836" y="77.394" fill="#00f"/><path d="M145.875 82.676l-5.465 26.82M151.64 86.64l-4.37 21.462" stroke-width="1.2" stroke="#000" stroke-miterlimit="10" fill="none"/><path d="M238.79 101.598m-1.868-2.352l-.692.78m-1.175-3.128l-1.38 1.563m-.484-3.91l-2.073 2.345m.207-4.692l-2.765 3.12m.897-5.468L226 93.758m1.59-6.254l-4.15 4.687m2.283-7.034l-4.836 5.465m2.968-7.81l-5.527 6.245m3.66-8.594l-6.218 7.028m5.722-7.652l-6.402 7.234" stroke="#000" stroke-miterlimit="10" fill="none"/><path d="M210.293 76.953h17v13h-17zm0 0" fill="#fff"/><g fill="#00f"><use xlink:href="#b" x="210.293" y="86.854"/><use xlink:href="#c" x="218.276" y="86.854"/></g><path d="M238.79 101.598l25.96-8.684M238.79 101.598l-5.462 26.82M233.328 128.418l-25.96 8.68M232.773 135.395l-20.765 6.945M253.824 146.56l-20.496-18.142M207.367 137.098l-5.46 26.824M201.906 163.922l20.496 18.14M208.223 160.914l16.398 14.512M222.402 182.063l25.96-8.68M248.363 173.383l5.46-26.824M242.598 169.414l4.37-21.457M106.715 152.324L83.13 166.21M101.09 148.164l-18.87 11.11M106.48 124.953l.235 27.37M83.13 166.21l-23.825-13.48M59.305 152.73l-.235-27.375M65.723 149.938l-.188-21.9M59.07 125.355l-11.91-6.738" stroke-width="1.2" stroke="#000" stroke-miterlimit="10" fill="none"/><path d="M47.16 118.617l-11.91-6.742" stroke-width="1.2" stroke="#3cc" stroke-miterlimit="10" fill="none"/><path d="M59.07 125.355l23.59-13.886" stroke-width="1.2" stroke="#000" stroke-miterlimit="10" fill="none"/><path d="M28.25 105.375h7v13h-7zm0 0" fill="#fff"/><use xlink:href="#d" x="28.25" y="115.276" fill="#3cc"/><path d="M82.66 111.47l23.82 13.483M81.87 118.422l19.056 10.79" stroke-width="1.2" stroke="#000" stroke-miterlimit="10" fill="none"/></g></svg>
